X:509
T:Reel 509
M:4/4
K:Dmaj
L:1/8
AG|FDD (3DDD A,DD2|FDFA dBAG|FGED B,CDF|G2EF G2AG|FDED A,DD2|FDFA dBAG|FDFD EDCD|EDCB, A,2FG|FD (3DDD A2AG|FDAD BAGF|GE (3EEE BEEG|GABc dBAG|FD (3DDD A,DD2|FDFA d2cd|ecdB cABG|EDCD EFGE|FA (3AAA AGFD|FDFA dABG|FD (3DDD FABc|ECA,E CBAG|FD (3DCD A,D (3DED |FDFA dBcd|ecdB cABG|EDCD EFGE|
